packages/@coorpacademy-nova-icons/third-party/nova-composition.iconjar/icons/padlock.svg

<svg width="48" height="48" viewBox="0 0 48 48" fill="none" xmlns="http://www.w3.org/2000/svg">
<path d="M0 16C0 7.16344 7.16344 0 16 0H32C40.8366 0 48 7.16344 48 16V32C48 40.8366 40.8366 48 32 48H16C7.16344 48 0 40.8366 0 32V16Z" fill="#FCDADA"/>
<path d="M21.5 20.5V22H26.5V20.5C26.5 19.125 25.375 18 24 18C22.5938 18 21.5 19.125 21.5 20.5ZM19.5 22V20.5C19.5 18.0312 21.5 16 24 16C26.4688 16 28.5 18.0312 28.5 20.5V22H29C30.0938 22 31 22.9062 31 24V30C31 31.125 30.0938 32 29 32H19C17.875 32 17 31.125 17 30V24C17 22.9062 17.875 22 19 22H19.5Z" fill="#B81400"/>
</svg>

<?xml version="1.0" encoding="utf-8"?>
<svg version="1.1" id="Calque_1" xmlns="http://www.w3.org/2000/svg" xmlns:xlink="http://www.w3.org/1999/xlink" x="0px" y="0px"
	 viewBox="0 0 48 48" style="enable-background:new 0 0 48 48;" xml:space="preserve">
 <g fill="none" fill-rule="evenodd">
  <path fill="#757575" d="m21.5,20.5l0,1.5l5,0l0,-1.5c0,-1.37 -1.12,-2.5 -2.5,-2.5c-1.41,0 -2.5,1.13 -2.5,2.5zm-2,1.5l0,-1.5c0,-2.47 2,-4.5 4.5,-4.5c2.47,0 4.5,2.03 4.5,4.5l0,1.5l0.5,0c1.09,0 2,0.91 2,2l0,6c0,1.13 -0.91,2 -2,2l-10,0c-1.12,0 -2,-0.87 -2,-2l0,-6c0,-1.09 0.88,-2 2,-2l0.5,0z"/>
 </g>
</svg>
